src/img/icons/instagram.svg

<svg width="30" height="30" viewBox="0 0 30 30" fill="none" xmlns="http://www.w3.org/2000/svg">
<path d="M15 3C18.3963 3 18.82 3.0125 20.1525 3.075C21.4837 3.1375 22.39 3.34625 23.1875 3.65625C24.0125 3.97375 24.7075 4.40375 25.4025 5.0975C26.0381 5.72237 26.5299 6.47824 26.8438 7.3125C27.1525 8.10875 27.3625 9.01625 27.425 10.3475C27.4838 11.68 27.5 12.1037 27.5 15.5C27.5 18.8963 27.4875 19.32 27.425 20.6525C27.3625 21.9837 27.1525 22.89 26.8438 23.6875C26.5308 24.5222 26.0389 25.2783 25.4025 25.9025C24.7775 26.5379 24.0216 27.0297 23.1875 27.3438C22.3912 27.6525 21.4837 27.8625 20.1525 27.925C18.82 27.9838 18.3963 28 15 28C11.6037 28 11.18 27.9875 9.8475 27.925C8.51625 27.8625 7.61 27.6525 6.8125 27.3438C5.97791 27.0306 5.22191 26.5387 4.5975 25.9025C3.96176 25.2777 3.46991 24.5218 3.15625 23.6875C2.84625 22.8912 2.6375 21.9837 2.575 20.6525C2.51625 19.32 2.5 18.8963 2.5 15.5C2.5 12.1037 2.5125 11.68 2.575 10.3475C2.6375 9.015 2.84625 8.11 3.15625 7.3125C3.46905 6.47772 3.961 5.72165 4.5975 5.0975C5.22209 4.46154 5.97804 3.96966 6.8125 3.65625C7.61 3.34625 8.515 3.1375 9.8475 3.075C11.18 3.01625 11.6037 3 15 3ZM15 9.25C13.3424 9.25 11.7527 9.90848 10.5806 11.0806C9.40848 12.2527 8.75 13.8424 8.75 15.5C8.75 17.1576 9.40848 18.7473 10.5806 19.9194C11.7527 21.0915 13.3424 21.75 15 21.75C16.6576 21.75 18.2473 21.0915 19.4194 19.9194C20.5915 18.7473 21.25 17.1576 21.25 15.5C21.25 13.8424 20.5915 12.2527 19.4194 11.0806C18.2473 9.90848 16.6576 9.25 15 9.25V9.25ZM23.125 8.9375C23.125 8.5231 22.9604 8.12567 22.6674 7.83265C22.3743 7.53962 21.9769 7.375 21.5625 7.375C21.1481 7.375 20.7507 7.53962 20.4576 7.83265C20.1646 8.12567 20 8.5231 20 8.9375C20 9.3519 20.1646 9.74933 20.4576 10.0424C20.7507 10.3354 21.1481 10.5 21.5625 10.5C21.9769 10.5 22.3743 10.3354 22.6674 10.0424C22.9604 9.74933 23.125 9.3519 23.125 8.9375ZM15 11.75C15.9946 11.75 16.9484 12.1451 17.6517 12.8483C18.3549 13.5516 18.75 14.5054 18.75 15.5C18.75 16.4946 18.3549 17.4484 17.6517 18.1517C16.9484 18.8549 15.9946 19.25 15 19.25C14.0054 19.25 13.0516 18.8549 12.3483 18.1517C11.6451 17.4484 11.25 16.4946 11.25 15.5C11.25 14.5054 11.6451 13.5516 12.3483 12.8483C13.0516 12.1451 14.0054 11.75 15 11.75V11.75Z" fill="currentColor"/>
</svg>

<svg xmlns="http://www.w3.org/2000/svg" width="30" height="30" fill="none"><path fill="currentColor" d="M15 3c3.3963 0 3.82.0125 5.1525.075 1.3312.0625 2.2375.2712 3.035.5812.825.3175 1.52.7475 2.215 1.4413a6.1366 6.1366 0 0 1 1.4413 2.215c.3087.7963.5187 1.7037.5812 3.035.0588 1.3325.075 1.7562.075 5.1525s-.0125 3.82-.075 5.1525c-.0625 1.3312-.2725 2.2375-.5812 3.035a6.105 6.105 0 0 1-1.4413 2.215 6.1443 6.1443 0 0 1-2.215 1.4413c-.7963.3087-1.7038.5187-3.035.5812C18.82 27.9838 18.3963 28 15 28s-3.82-.0125-5.1525-.075c-1.3313-.0625-2.2375-.2725-3.035-.5812a6.113 6.113 0 0 1-2.215-1.4413 6.1306 6.1306 0 0 1-1.4413-2.215c-.31-.7963-.5187-1.7038-.5812-3.035C2.5162 19.32 2.5 18.8963 2.5 15.5s.0125-3.82.075-5.1525.2712-2.2375.5812-3.035a6.1 6.1 0 0 1 1.4413-2.215 6.1213 6.1213 0 0 1 2.215-1.4413c.7975-.31 1.7025-.5187 3.035-.5812C11.18 3.0162 11.6037 3 15 3Zm0 6.25a6.2499 6.2499 0 1 0 0 12.4998A6.2499 6.2499 0 0 0 15 9.25Zm8.125-.3125a1.5625 1.5625 0 1 0-3.125 0 1.5625 1.5625 0 0 0 3.125 0ZM15 11.75c.9946 0 1.9484.3951 2.6517 1.0983a3.7503 3.7503 0 0 1 0 5.3034 3.7503 3.7503 0 0 1-5.3034 0 3.7503 3.7503 0 0 1 0-5.3034A3.7503 3.7503 0 0 1 15 11.75Z"/></svg>
